icons/folder-chevron-up.svg

<svg xmlns="http://www.w3.org/2000/svg" width="24" height="24" viewBox="0 0 24 24">
  <path d="M11,4 L13,6 L20,6 C21.1045695,6 22,6.8954305 22,8 L22,18 C22,19.1045695 21.1045695,20 20,20 L4,20 C2.8954305,20 2,19.1045695 2,18 L2,6 C2,4.8954305 2.8954305,4 4,4 L11,4 Z M12.6128994,10.7097046 C12.2206082,10.4046797 11.6533772,10.4324093 11.2928932,10.7928932 L11.2928932,10.7928932 L8.29289322,13.7928932 L8.20970461,13.8871006 C7.90467972,14.2793918 7.93240926,14.8466228 8.29289322,15.2071068 L8.29289322,15.2071068 L8.38710056,15.2902954 C8.77939176,15.5953203 9.34662282,15.5675907 9.70710678,15.2071068 L9.70710678,15.2071068 L12,12.915 L14.2928932,15.2071068 L14.3871006,15.2902954 C14.7793918,15.5953203 15.3466228,15.5675907 15.7071068,15.2071068 C16.0976311,14.8165825 16.0976311,14.1834175 15.7071068,13.7928932 L15.7071068,13.7928932 L12.7071068,10.7928932 Z"/>
</svg>

<svg xmlns="http://www.w3.org/2000/svg" viewBox="0 0 24 24">
  <path d="m11 4 2 2h7a2 2 0 0 1 2 2v10a2 2 0 0 1-2 2H4a2 2 0 0 1-2-2V6c0-1.1.9-2 2-2h7zm1.61 6.71a1 1 0 0 0-1.32.08l-3 3-.08.1a1 1 0 0 0 .08 1.32l.1.08a1 1 0 0 0 1.32-.08L12 12.9l2.3 2.3.09.08a1 1 0 0 0 1.32-1.5l-3-3z"/>
</svg>
